X:1
T:Keyboard Sonata in E Minor
T:Keyboard Sonata in E Minor
T:Hob.XVI:34
T:Joseph Haydn
C:Joseph Haydn
%%score { ( 1 3 ) | ( 2 4 5 ) }
L:1/8
Q:1/4=145
M:6/8
K:G
V:1 treble nm="Piano" snm="Pno."
V:3 treble 
V:2 bass 
V:4 bass 
V:5 bass 
V:1
"^Presto"!p! z2 z z ([B,G][A,^D] | [G,E]) z z z [GB][FA] | [EG] z z z [Bg][Af] | %3
 [Ge]3- [Ge][Ac][FA] | [^DF]3- [DF]BA | [FA]2 [EG] F^AB | [F=A]2 [EG] F^AB | %7
 [F=A]2 [EG] [^DF] z !fermata!z | z2 z z ([B,G][A,^D] | [G,E]) z z z [GB][FA] | %10
 [EG] z z z [^Ge][B=d] | [Ac] z z z [Ac][=Ge] | [Fd] z z z [FA][Ac] |!f! [GB] z z z/ D/d/B/A/G/ | %14
 F z z z/ D/d/c/B/A/ |!p! B z z z/ d/d'/b/a/g/ | (g2 f) z/ d/d'/c'/b/a/ | (a2 b) z/ d/d'/b/a/g/ | %18
!f! e'/e/c'/e'/b/e'/ a/b/c'/d'/e'/c'/ | d'/d/b/d'/a/d'/ g/a/b/c'/d'/b/ | %20
 c'/c/a/c'/g/c'/ f/c'/g/c'/a/c'/ | bc'd' aaa | bc'd' aaa | bc'd' aaa | ggg fff | %25
 ^ccc d/A/B/c/d/e/ | f/d/e/f/g/a/ b/a/g/a/b/^c'/ | d'af dAF | D2 z !fermata!z2 z | %29
!p! z [Bd][Ac] [GB][db][Bg] | [Af][ac'][gb] [fa][c'e'][ac'] | b d'2- d'2 c'- | c'2 b abc' | %33
 g3- gaf | g z z !fermata!z2 z | z [Bd][Ac] [GB][db][Bg] | [Af][ac'][gb] [fa][c'e'][ac'] | %37
 b d'2- d'2 c'- | c'2 b- b a2 | ggg ggg | g3- gaf |!f! g/d/B/d/c/d/ B/d/g/d/a/d/ | %42
 b/d/B/d/c/d/ B/d/g/d/a/d/ | b/d/B/d/c/d/ B/d/g/d/a/d/ | b[gb][bd'] [gb] z z :| %45
!p! z2 z z [^G,E][B,D] | [A,C] z z z [Ec][CA] | [B,^G] z z z [Ge][Bd] | [Ac] z z z [ca][A^d] | %49
 [^Ge] z z !fermata!z2 z |!f! z2 z z/ G/g/e/d/c/ | B z z z/ G/g/=f/e/d/ |!p! e2 z z/ G/g/e/d/c/ | %53
 (c2 B) z/ G/g/=f/e/d/ | (d2 ^c) z/ _b/a/g/=f/e/ | (e2 d) z/ A/a/=f/e/d/ | %56
 (d2 ^c) z/ _b/a/g/=f/e/ | (e2 ^d) z/ c'/=b/a/g/^f/ | (f2 e) z/ B/b/g/f/e/ | %59
 (b2 ^a) z/ g/f/e/d/^c/ | (e2 d) z/ d/f/d/^c/B/ | (B2 ^A) z/ g/f/e/d/^c/ | %62
 (e2 d) z/!f! b/^a/b/d'/b/ | g/b/f/b/e/b/ d/b/^a/b/d'/b/ | e/b/d/b/^c/b/ B/b/^a/b/d'/b/ | %65
 g/b/f/b/e/b/ d/b/^a/b/d'/b/ | e/b/d/b/^c/b/ B2 b | ^c2 g f2 e | e2 d B2 b | ^c2 g z (f^A) | %70
 .B.d.f b!p! z z | .B.d.f b z z | .B.d.g b z z |"_cresc." .B.e.g b z z | .c.e.g c' z z | %75
 .c.e.a c' z z |!f! .c.f.a c' z z | .B.^d.f !fermata!b3 |!p! z2 z z [B,G][A,^D] | %79
 [G,E]2 z z [GB][FA] | [EG] z z z/ b/a/g/f/e/ | (e2 ^d) z/ c'/b/a/g/f/ | (f2 e) z/ b/a/g/f/e/ | %83
!f! c'/c/a/c'/g/c'/ f/a/d'/c'/b/a/ | b/B/g/b/f/b/ e/g/c'/b/a/g/ | a/A/f/a/e/a/ ^d/f/b/a/g/f/ | %86
 gab fff | gab fff | gab fff | eee ^ddd | ^AAA z/ B/^c/^d/e/f/ | g/B/^c/^d/e/f/ g/f/e/f/g/a/ | %92
 bf^d BF^D | !fermata!B,6 |!p! z [GB][FA] [EG][Bg][Ge] | [F^d][fa][eg] [df][ac'][fa] | %96
 g b2- b a2- | age- efa | e3- ef^d | e2 z z2 z | z [GB][FA] [EG][Bg][Ge] | %101
 [F^d][fa][eg] [df][ac'][fa] | g b2- b a2- | a2 g =f3 | e3 d3 | c3 B2 e | %106
 [=Fe][^Fe][Ge] [^Ge][Ae][^Ae] | e3- ef^d |!f! e/B/G/B/A/B/ G/B/e/B/f/B/ | %109
 e/B/G/B/A/B/ G/B/e/B/f/B/ | g3 =f3 | e/g/e/g/=f/g/ e/g/c'/g/d'/g/ | e/g/e/g/=f/g/ e/g/c'/g/d'/g/ | %113
 e'aa d'^gg | c'=ff bee | a^dd g^AA | fBB =aAA | e/B/G/B/A/B/ G/B/e/B/f/B/ | %118
 g/B/G/B/G/B/ e/c/G/c/G/c/ | F/c/e/c/e/c/ F/B/^d/B/d/B/ | g/B/G/B/G/B/ e/c/G/c/G/c/ | %121
 F/c/e/c/e/c/ F/B/^d/B/d/B/ | e2 z z [B,G][A,^D] |"_dim." [G,E] z z z [GB][^DF] | %124
 [EG] z z z!p! [gb][fa] | [eg][ee'][ee'] [ee']2 z |] %126
[M:3/4][Q:1/4=50]"^Adagio" G3/2(3(A/4G/4F/4) .G.B.d.G | %127
 F3/2(3(G/4F/4E/4) F/4A/4G/4B/4 A/4c/4B/4d/4 c z | A3/2(3(B/4A/4^G/4) .A/.B/.c/.d/ .e/(c/B/A/) | %129
 B3/2(3(c/4B/4A/4) B/4G/4c/4A/4 d/4B/4e/4c/4 d z | g3/2(3(a/4g/4f/4) .g/.b/.d'/.b/ .g/(d/c/B/) | %131
 A3/2(3(B/4A/4^G/4) .A/.B/.c/.d/ .^d/(e/c/A/) | d4-"^perdendosi" (6:4:6d/^c/=c/B/_B/A/ | %133
 G2 z2 x[I:staff +1] B/4[I:staff -1]d/4g/4b/4 | %134
 d'2- d'/c'/4b/4 a/4g/4f/4g/4 a/4g/4b/4a/4{c'} b/a/4g/4 | ^g>b a z z/4 d/4e/4f/4 =g/4a/4b/4^c'/4 | %136
 d'2- d'/4a/4g/4a/4 f/4g/4e/4f/4 d/4e/4^c/4e/4 d/z/4a/4 | a .^g2 .g2 =g | %138
 (g/4e/4f/4g/4) (a/4b/4^c'/4d'/4) (e'/4d'/4c'/4b/4) (a/4^g/4a/4g/4) (a/4^a/4b/4a/4) (b/4=g/4f/4e/4) | %139
 (f/4d/4e/4f/4 g/4a/4b/4^c'/4 d'/4c'/4d'/4c'/4 d'/4c'/4d'/4c'/4) (d'/4c'/4b/4a/4 g/4f/4e/4d/4) | %140
 (e/4^d/4f/4e/4) (g/4f/4a/4g/4) (b/4g/4f/4e/4) (d/4e/4f/4e/4) (g/4f/4a/4g/4) (b/4g/4f/4e/4) | %141
 (a/4b/4^g/4b/4) (a/4b/4g/4b/4) (a/4b/4g/4b/4) (a/4b/4g/4b/4) a/^a/b/d'/ |{/d} Te6 | %143
 d z z/4 a/4g/4f/4 e/4d/4^c/4B/4 A/4G/4F/4E/4 D/4^C/4B,/4A,/4 | %144
 A,2- A,/B,/^C/D/[K:bass] E,/F,/G,/^C,/ | ^C,>D, z2 z2 :|[K:treble] B3/2(3(^c/4B/4^A/4) B^df[F=A] | %147
 [FA][EG] [^DF] z z2 | e3/2(3(f/4e/4^d/4) egbe | %149
 ^d/4e/4f/4e/4 g/4f/4a/4g/4 b/4a/4c'/4b/4 a/4g/4f/4e/4 d z | %150
 x E/4^G/4B/4=d/4 x e/4^g/4b/4e'/4 d'/4c'/4b/4a/4 g/4[I:staff +1]=f/4e/4d/4 | %151
 c/4[I:staff -1]e/4^f/4^g/4 a/4e/4f/4g/4 a/4b/4c'/4d'/4 e'/4d'/4c'/4b/4 a/4b/4c'/4b/4 a/4=g/4f/4e/4 | %152
 d/4[I:staff +1]D,/4F,/4A,/4[I:staff -1] x x c'/4b/4a/4g/4 f/4g/4a/4g/4 f/4e/4d/4c/4 | %153
 B/4[I:staff +1]G,/4B,/4D/4 G/4[I:staff -1]B/4d/4g/4 b/4d/4g/4b/4 d'/4b/4a/4g/4 f/4g/4a/4g/4 b/4[I:staff +1]G/4B/4d/4 | %154
 F/4[I:staff -1]d/4f/4a/4 d'/4c'/4b/4a/4 g/4f/4e/4d/4 ^c/4d/4e/4d/4 g/4f/4e/4d/4 c/4B/4A/4G/4 | %155
[Q:1/4=50] F/4[Q:1/4=47]"^.5"A/4[Q:1/4=45]G/4[Q:1/4=42]"^.5"F/4[Q:1/4=40] E/4[Q:1/4=37]"^.5"D/4[Q:1/4=35]^C/4[Q:1/4=32]"^.5"D/4[Q:1/4=30] C/4D/4E/4D/4 F/4E/4G/4F/4 A/G/B/C/ | %156
 ^C3/2E/4D/4 z2 z2 |[Q:1/4=50] G3/2(3(A/4G/4F/4) .G.B.d.G | %158
 F3/2(3(G/4F/4E/4) (6:4:6(F/G/^G/A/^A/B/) c z | A3/2(3(B/4A/4^G/4) .A/.B/.c/.d/ .^d/(e/c/A/) | %160
 B3/2(3(c/4B/4A/4) B/4G/4c/4A/4 d/4B/4e/4c/4 d z | g3/2(3(a/4g/4f/4) .g/.b/.d'/.b/ .g/(d/c/B/) | %162
 A3/2(3(B/4A/4^G/4) .A/.B/.c/.d/ .e/(c/A/=G/) | %163
 F/4E/4D/4^C/4 D/4E/4F/4G/4 A/4G/4F/4E/4 F/4G/4A/4B/4 =c/4A/4d/4B/4 e/4c/4B/4A/4 | %164
 B/4G/4A/4B/4 c/4d/4e/4f/4 g/4f/4g/4f/4 g/4f/4g/4f/4 g/4f/4e/4d/4 c/4B/4A/4G/4 | %165
 A/4^G/4B/4A/4 c/4B/4d/4c/4 e/4c/4B/4A/4 G/4A/4B/4A/4 c/4B/4d/4c/4 e/4c/4B/4A/4 | %166
 d/4e/4^c/4e/4 d/4e/4c/4e/4 d/4g/4f/4a/4 g/4a/4f/4a/4 g/4b/4a/4c'/4 b/4d'/4f/4a/4 | %167
 g/4b/4^d/4f/4 e/4g/4B/4=d/4 c/4e/4A/4c/4 B/4d/4G/4B/4 A/4c/4F/4A/4 G/4B/4B,/4B/4 | %168
 C/4B/4^C/4B/4 D/4B/4^D/4B/4 E/4B/4F/4B/4 G/4B/4F/4B/4 E/4B/4=D/4B/4 =C/4B/4^C/4B/4 | %169
[I:staff +1] D,/4G,/4B,/4[I:staff -1]D/4 (6:4:6G/4B/4d/4B/4G/4D/4{/gab} Ta4 | %170
 g z!f! [cegc'] z z3/2 [Gc]/ | [FB] z [B^dfb] z z3/2!p! [FA]/ | [FA]4{[FA]} [EG][^DF]/[EG]/ | %173
 [^DF] z[K:bass] [^D,B,] z [D,B,] z | [^D,B,]2 z2 z2 |] %175
[M:2/4][K:treble]!p![Q:1/4=140]"^Molto vivace""^innocentemente" G | (G>AB).e | (^df) z (B | %178
 e)(ef)f |{/a} Tg2 ff |!<(! (g>ab).b!<)! |!f! (ac') z (a | f).f{g} (fe/=d/) | g2 z ::!p! b | %185
 (b>c'd').d' | (d'e) z e | (a>bc').c' | (c'^d) z B | eeff |{/a} Tg2 f(b |!<(! e)(ec')(c'!<)! | %192
 ^d2) e(e | f)f{e} ^d^c/B/ | e2 z ::[K:E]!mf! g | (g>ab).e | (df) z/ B,/C/D/ | %198
 (E/F/G/A/) (B/c/d/e/) |{/B} (TA2 G)g |"^♯" (!turn!g>^ab).^B |"^♯" (!turn!c>eg).^A | %202
 B(e/c/) (d/B/)(c/^A/) | B2 z :: f | (f>g =a/f/e/d/) | (e/d/e/d/) e/b/a/g/ | !turn!f>g (a/f/e/d/) | %208
 (e/d/e/d/) e/b/a/g/ | (f/g/a/g/ f/e/d/c/) | (B/^A/B/c/) (B/=A/G/F/) | (!invertedturn!G>AB).E | %212
 (DF) z/ B,/C/D/ | (E/F/G/A/) (B/c/d/e/) |{/B} (TA2 G/)B/c/d/ | e/f/g/a/ b/g/f/e/ | z c' z d' | %217
 e'/b/c'/a/ g/e/f/d/ | e2 z ::[K:G]!p! G | (G>AB).e | (^df) z (B | e)(ef)f |{/a} Tg2 ff | %224
!<(! (g>ab).b!<)! |!f! a c'2 (a | f).f{g} (fe/d/) | g2 z!p! b | (b>c'd').d' | (d'e) z e | %230
 (a>bc').c' | (c'^d) z (B | e)(ef)f |{/a} Tg2 f(b |!<(! e)(ec')(c'!<)! | ^d2) e(e | %236
 f)f{e} ^d^c/B/ | e2 z b | (b/d'/c'/e'/) =d'd' | (d'/e/^d/e/ d/e/d/e/) | (!turn!a>bc').c' | %241
 (c'2 ^d)d | (g/f/a/g/ b)b | (b/c/B/c/ d/c/B/c/) | (!turn!f>ga).a | (aB)(gd) | (eA)(cF) | %247
 (!fermata!A2 !fermata!G)!p! G | (G>AB).e | (^df) z B | z e z f |{/a} Tg2 (f>b | %252
!<(! e)(ec')(c'!<)! | ^d2) e(e | f)f{e} ^d^c/B/ | e2 z ::[K:E]!mf! g | (g>ab).e | (df) z B | %259
 (d/e/d/e/ ^e/f/e/f/) |{/a} Tg2 ff | (f/g/f/g/ ^a).a | b3 f | (f/e/g/e/) (d/c/B/^A/) | B2 z :: f | %266
 (^e/f/e/f/) (=ad) | (=e>gb).b | (^e/f/e/f/) (ad) | (=e>gb)(b | a)(ag)(g | f/)b/^a/g/ f/e/d/c/ | %272
 B/B/^A/G/ F/E/D/C/ | !fermata!B,3 g | (g>ab).e | (df) z B | (d/e/d/e/) (^e/f/e/f/) |{/a} Tg2 f(f | %278
 g)(ga)(a | b2){c'} ba/g/ | ff{e} dc/B/ | e2 z :|[K:G]!p! G | (G>AB).e | (^df) z (B | e)(ef)f | %286
{/a} Tg2 ff |!<(! (g>ab)b!<)! |!f! (ac') z (a | f)f{g} (fe/=d/) | g2 z!p! G | G>ABe | ^d b2 f/d/ | %293
 bg/e/ c'a/f/ |{f} g2 ff |!<(! g>abb!<)! |!f! a/c'/e'/d'/ c'/b/a/g/ | .f.a (c'a/f/) | g2 z!p! b | %299
 (bc'^c'd') | (d'e) (=f/^f/g/^g/) |"^♯" (!turn!abbc') | (c'2 ^d)B | eeff | g2 f(b | %305
!<(! e)(ec')(c'!<)! | ^d2) e(e | f)f{e} (^d^c/B/) | e2 z b | (b/c'/d'/).d'/ .d'/.d'/.d'/.d'/ | %310
 (d'e) z e | (a/b/c'/).c'/ .c'/.c'/.c'/.c'/ | (c'^d) z B | ^d/e/d/e/ ff | g2 (fb-) | %315
!<(! (b e2) (c'!<)! |!f! ^d)dee | z [Af] z [F^d] | [Ee]2 z |] %319
V:2
 .E,,.G,,.B,, E, z z | .E,,.G,,.B,, E, z z | .E,,.G,,.B,, E, z z | C,E,G, C3 | C^D,F, B,3 | %5
 z (E,^A, B,) z z | z (E,^A, B,) z z | z (E,^A, B,) z !fermata!z | .E,,.G,,.B,, E, z z | %9
 .E,,.G,,.B,, E, z z | .E,,.G,,.B,, E, z z | .E,,.A,,.C, E, z z | .D,,.F,,.A,, D, z z | %13
 [G,,,G,,][B,,,B,,][D,,D,] [G,,G,] z z | [A,,,A,,][C,,C,][D,,D,] [F,,F,] z z | %15
[K:treble] z B,2- [B,DG]3 | z C2- [CDF]3 | z B,2- [B,DG]3 | CAG F z z | B,GF E z z | A,FE DEF | %21
 G,/G/A,/G/B,/G/ C/G/C/G/C/G/ | G,/G/A,/G/B,/G/ C/G/C/G/C/G/ | G,/G/A,/G/B,/G/ C/G/C/G/C/G/ | %24
 ^C/_B/C/B/C/B/ D/A/D/A/D/A/ | E/G/E/G/E/G/ F z z | z/ D/E/F/G/A/ B/A/G/A/B/^c/ | %27
 dAF[K:bass] DA,F, | D,2 z !fermata!z2 z | [G,,,G,,]2 z z z [G,B,] | %30
 [A,C]2 z[K:treble] z [DF][FA] | [GB]2 B cBA | GFG cBA | B3 A3 | G z z !fermata!z2 z | %35
[K:bass] [G,,,G,,]2 z z z [G,B,] | [A,C]2 z[K:treble] z [DF][FA] | [GB]2 B cBA | GFG EF^D | %39
 EC^C =D_E=E | B3 A3 | [G,G]2 [DF] [G,G]2 [DF] | [G,G]2 [DF] [G,G]2 [DF] | %43
 [G,G]2 [DF] [G,G]2 [DF] | [G,G]2 z z2 z :|[K:bass] E,,^G,,B,, E, z z | E,,A,,C, E, z z | %47
 E,,^G,,B,, E, z z | E,,A,,C, E, z z | E,,^G,,B,, !fermata!E, z z | %50
 [C,,C,][E,,E,][=G,,=G,] [C,C]2 z | [D,,D,][=F,,=F,][G,,G,] [B,,B,]3 | z E,2- [E,G,C]3 | %53
 z =F,2- [F,G,B,]3 | z G,2- [G,B,^C]3 | z A,2- [A,D]3 | z G,2- [G,B,^C]3 | z A,2- [A,C^D]3 | %58
 z B,2- [B,E]3 | z ^A,2- [A,CE]3 |[K:treble] z D2- [DFB]3 | z E2- [EG^A]3 | z F2- [FB]3 | %63
 ED^C B,2 z | GFE D2 z | ed^c B2 z | GFE D/F/D/F/D/F/ | E/G/E/G/E/G/ F/^A/F/A/F/A/ | %68
 G/B/G/B/G/B/ D/F/D/F/D/F/ | E/G/E/G/E/G/ F z z | B, z z[K:bass] z [DF][^CE] | %71
 [B,D]2 z z [B,D][A,=C] | [G,B,] z z z [G,B,][F,A,] | [E,G,] z z z [E,G,][D,=F,] | %74
 [C,E,] z z z [C,E,][B,,D,] | [A,,C,] z z z [A,,C,][G,,B,,] | [F,,A,,] z z z [F,,A,,][E,,G,,] | %77
 !fermata![^D,,F,,]6 | .E,,.G,,.B,, .E, z z | .E,,.G,,.B,, .E, z z | z G,2- [G,B,E]3 | %81
 z A,2- [A,B,^D]3 | z B,2- [B,E]3 | A,FE =D2 z | G,ED C2 z | F,^D^C B,2 z | %86
 E,/E/F,/E/G,/E/ A,/E/A,/E/A,/E/ | E,/E/F,/E/G,/E/ A,/E/A,/E/A,/E/ | %88
 E,/E/F,/E/G,/E/ A,/E/A,/E/A,/E/ |[K:treble] ^A,/^C/A,/C/A,/C/ B,/F/B,/F/B,/F/ | %90
 ^C/E/C/E/C/E/ B,2 z | z/ B,/^C/^D/E/F/ G/F/E/F/G/A/ | BF^D[K:bass] B,F,^D, | !fermata!B,,6 | %94
 E,,2 z z z [E,G,] | [F,A,]2 z[K:treble] z [B,^D][DF] | [EG]2 B AFE | ^DEG A3 | G3 F3 | E2 z z2 z | %100
[K:bass] E,,2 z z z [E,G,] | [F,A,]2 z[K:treble] z [B,^D][DF] | [EG]2 B AFE | ^DEG ABA | %104
 ^GA=G FGF | EFE ^DEG, | ^G,A,^A, B,C^C | G3 F3 |[K:bass] [E,E]2 [B,^D] [E,E]2 [B,D] | %109
 [E,E]2 [B,^D] [E,E]2 [B,D] |[K:treble] E/B/G/B/G/B/ =D/B/G/B/G/B/ | [Cc]2 [GB] [Cc]2 [GB] | %112
 [Cc]2 [GB] [Cc]2 [GB] | c/e/c/e/c/e/ B/d/B/d/B/d/ | A/c/A/c/A/c/ G/B/G/B/G/B/ | %115
 F/A/F/A/F/A/ E/G/E/G/E/G/ | ^D/F/D/F/D/F/ D/F/D/F/D/F/ |[K:bass] [E,E]2 [B,^D] [E,E]2 [B,D] | %118
 [E,E]2 [B,^D] [E,E]2 [B,D] | [E,E]2 z [C,C]2 z | [A,,A,]2 z [B,,B,]2 z | [E,E]2 z [C,C]2 z | %122
 [A,,A,]2 z [B,,B,]2 z | .E,,.G,,.B,, E, z z | .E,,.G,,.B,, E, z z | .E,,.G,,.B,, E, z z |] %126
[M:3/4]"^mezza voce" [G,B,]6 | [D,A,C]4- [D,A,C] z | [D,F,C]6 | [G,B,]2 [G,,B,,]2 z2 | %130
[K:treble] [B,DG]6 | C2[K:bass] [C,E,]2 z2 | z2 [G,B,]2 [A,C] z | %133
 [G,B,]2 G,,2[K:treble] G,/4B,/4D/4G/4 x |[K:bass] z2 [G,B,] z[K:treble] [GB] z | %135
[K:bass] z2 [F,D] z [F,D] z | z2 [F,D] z [F,D] z |[K:treble] z2 [EB]2 [DB]2 | [^CA]6 | %139
 [DA]2 z2[K:bass] [F,D]2 | [G,B,]2 z2 z2 | [A,DF]4 z2 | z2 [A,,,A,,]2 [A,^CG]2 | [DF] z F,, z z2 | %144
 z2 G,,, z A,,, z | z2 D,,2 z2 :| [^D,F,B,-]6 | [E,B,][^A,^C] B, z z2 |[K:treble] [EG]6 | %149
 [B,FA]4- [B,FA] z |[K:bass] E,/4^G,/4B,/4=D/4 x[K:treble] E/4^G/4B/4d/4 x x x | x6 | %152
[K:bass] x C/4[I:staff -1]D/4F/4A/4[I:staff +1][K:treble] c/4[I:staff -1]d/4f/4a/4[I:staff +1] x x2 | %153
[K:bass] x x x2 x x/4[K:treble] x/4 x/ | x2 x2 E z |[K:bass] A,, z"^più adagio" z2 z2 | %156
 z2 D,,2 z2 | [G,B,]6 | [D,A,C]4- [D,A,C] z | [D,F,C]6 | [G,B,]2 [G,,B,,]2 z2 |[K:treble] [B,DG]6 | %162
 [C-E]4 C^C |[K:bass] D z z2 [F,D] z | [G,D]2 z2 [B,,G,]2 | [C,E,]2 z2 z2 | [D,G,B,]2 z2 z2 | %167
 z2 z2 z3/2 B,,/ | C,/^C,/D,/^D,/ E,/F,/G,/F,/ E,/=D,/=C,/^C,/ | %169
 x2 D,,/4 z/4 z/ z[K:treble] [DFc]2 | [EGB] z[K:bass] [E,E] z z3/2 [E,E]/ | [^D,^D] z D, z z2 | %172
 z2 E,2 ^A,,2 | B,, z [B,,,B,,] z [B,,,B,,] z | [B,,,B,,]2 z2 z2 |][M:2/4] z | %176
 E,/B,/G,/B,/ E,/B,/G,/B,/ | F,/B,/A,/B,/ F,/B,/A,/B,/ | E,/B,/G,/B,/ ^D,/B,/F,/B,/ | %179
 E,/B,/G,/B,/ B,,/B,/^D,/B,/ | E,/B,/G,/B,/ E,/B,/G,/B,/ | C,/A,/E,/A,/ C,/A,/E,/A,/ | %182
 D,/C/A,/C/ D,/C/A,/C/ | [G,B,]2 B,, :: z |[K:treble] B,/G/D/G/ B,/G/D/G/ | C/G/E/G/ C/G/E/G/ | %187
 A,/F/C/F/ A,/F/C/F/ | B,/F/^D/F/[K:bass] A,/^D/B,/D/ | G,/E/B,/E/ ^D,/B,/F,/B,/ | %190
 E,/B,/G,/B,/ B,,/B,/^D,/B,/ | C,/B,/G,/B,/ C,/A,/G,/A,/ | B,,/!p!A,/F,/A,/ C,/G,/E,/G,/ | %193
 A,,/A,/C,/A,/ B,,/A,/D,/A,/ | [E,G,]2 E,, ::[K:E] z |[K:treble] [EG]2 z [GB] | %197
 [FA] z[K:bass] A, z | G, z G z | (FB, E) z |[K:treble] [EG]2 z [DF] | [EG]2 z [EG] | %202
 [DF]EF[K:bass]F, | B,2 B,, :: z | [B,D]2 z [A,B,] | [G,B,]2[K:treble] z [GB] | %207
 [Ac]2[K:bass] z [A,B,] | [G,B,]2[K:treble] z [GB] | [Ac]2[K:bass] z [^A,C] | B,2 z2 | %211
 [E,B,]2 z [G,B,] | [F,A,] z A,, z | G,,2 z G | (FB, E) z | z4 | A, z[K:treble] A z | GABB, | %218
 E2[K:bass] E, ::[K:G] z | E,/B,/G,/B,/ E,/B,/G,/B,/ | F,/B,/A,/B,/ F,/B,/A,/B,/ | %222
 E,/B,/G,/B,/ ^D,/B,/F,/B,/ | E,/B,/G,/B,/ B,,/B,/^D,/B,/ | E,/B,/G,/B,/ E,/B,/G,/B,/ | %225
 C,/A,/E,/A,/ C,/A,/E,/A,/ | F,/C/A,/C/ F,/C/A,/C/ | [G,B,]2 G,, z | %228
[K:treble] B,/G/D/G/ B,/G/D/G/ | C/G/E/G/ C/G/E/G/ | A,/F/C/F/ A,/F/C/F/ | %231
 B,/F/^D/F/[K:bass] A,/^D/B,/D/ | G,/E/B,/E/ ^D,/B,/F,/B,/ | E,/B,/G,/B,/ B,,/B,/^D,/B,/ | %234
 C,/B,/G,/B,/ C,/A,/G,/A,/ | B,,/!p!A,/F,/A,/ C,/G,/E,/G,/ | A,,/F,/C,/F,/ B,,/A,/F,/A,/ | %237
 [E,G,]2 E,, z |[K:treble] B,/G/D/G/ B,/G/D/G/ | C/G/E/G/ C/G/E/G/ |[K:bass] A,/F/C/F/ A,/F/C/F/ | %241
 B,/F/^D/F/ B,/F/D/F/ | G,/E/B,/E/ G,/E/B,/E/ | A,/E/C/E/ A,/E/C/E/ | F,/D/A,/D/ F,/D/A,/D/ | %245
 G,/D/B,/D/ B,,/G,/D,/G,/ | C,/G,/E,/G,/ D,/C/A,/C/ | (!fermata![G,-C]2 [G,B,]) z | %248
 E,/B,/G,/B,/ E,/B,/G,/B,/ | F,/B,/A,/B,/ F,/B,/A,/B,/ | E,/B,/G,/B,/ ^D,/B,/F,/B,/ | %251
 E,/B,/G,/B,/ B,,/B,/^D,/B,/ | C,/B,/G,/B,/ C,/A,/G,/A,/ | B,,/!p!A,/F,/A,/ C,/G,/E,/G,/ | %254
 A,,/F,/C,/F,/ B,,/A,/F,/A,/ | [E,G,]2 E,, ::[K:E] z |[K:treble] E/B/G/B/ E/B/G/B/ | %258
 B,/A/F/A/ B,/A/F/A/ | E/B/G/B/ D/B/F/B/ | E/B/G/B/ B,/B/D/B/ | E/B/G/B/ E/c/F/c/ | %262
 D/B/F/B/ D/B/F/B/ | E2 z F |[K:bass] B,2 B,, :: z |[K:treble] B,/A/F/A/ B,/A/F/G/ | %267
 B,/G/E/G/ B,/G/E/G/ | B,/A/F/A/ B,/A/F/A/ | B,/G/E/G/ B,/G/E/G/ | B,/F/D/F/ B,/G/E/G/ | B,2 z2 | %272
[K:bass] B,,2 z2 | !fermata!B,,,2 z2 |[K:treble] E/B/G/B/ E/B/G/B/ | B,/A/F/A/ B,/A/F/A/ | %276
 E/B/G/B/ D/B/F/B/ | E/B/G/B/ B,/B/F/B/ | E/B/G/B/ C/A/E/A/ | G,/E/B,/E/ G,/E/B,/E/ | %280
 A,/F/C/F/ B,/F/D/F/ | [EG]2[K:bass] E, :|[K:G] z | E,/B,/G,/B,/ E,/B,/G,/B,/ | %284
 F,/B,/A,/B,/ F,/B,/A,/B,/ | E,/B,/G,/B,/ ^D,/B,/F,/B,/ | E,/B,/G,/B,/ B,,/B,/^D,/B,/ | %287
 E,/B,/G,/B,/ E,/B,/G,/B,/ | C,/A,/E,/A,/ C,/A,/E,/A,/ | D,/C/A,/C/ D,/C/A,/C/ | [G,B,]2 G,, z | %291
 E,/B,/G,/B,/ E,/B,/G,/B,/ | F,/B,/A,/B,/ F,/B,/A,/B,/ | E,/B,/G,/B,/ ^D,/B,/F,/B,/ | %294
 E,/B,/G,/B,/ B,,/B,/^D,/B,/ | E,/B,/G,/B,/ E,/B,/G,/B,/ | C,/A,/E,/A,/ C,/A,/E,/A,/ | %297
 D,/C/A,/C/ D,/C/A,/C/ | [G,B,]2 G,, z |[K:treble] B,/G/D/G/ B,/G/D/G/ | C/G/E/G/ C/G/E/G/ | %301
 A,/F/C/F/ A,/F/C/F/ | B,/F/^D/F/[K:bass] A,/^D/B,/D/ | G,/E/B,/E/ ^D,/B,/F,/B,/ | %304
 E,/B,/G,/B,/ B,,/B,/^D,/B,/ | C,/B,/G,/B,/ C,/A,/G,/A,/ | B,,/!p!!p!A,/F,/A,/ C,/G,/E,/G,/ | %307
 A,,/F,/C,/F,/ B,,/A,/F,/A,/ | [E,G,]2 E,, z |[K:treble] B,/G/D/G/ B,/G/D/G/ | C/G/E/G/ C/G/E/G/ | %311
 A,/F/C/F/ A,/F/C/F/ |[K:bass] B,/F/^D/F/ A,/D/B,/D/ | G,/E/B,/E/ ^D,/B,/F,/B,/ | %314
 E,/B,/G,/B,/ B,,/B,/^D,/B,/ | C,/B,/G,/B,/ C,/A,/G,/A,/ | B,,/A,/F,/A,/ C,/G,/E,/G,/ | %317
 [A,,A,] z [B,,B,] z | [E,,E,]2 z |] %319
V:3
 x6 | x6 | x6 | x6 | x6 | x2 x ^D2 z | x2 x ^D2 z | x6 | x6 | x6 | x6 | x6 | x6 | x6 | x6 | x6 | %16
 x6 | x6 | x6 | x6 | x6 | x6 | x6 | x6 | x6 | x6 | x6 | x6 | x6 | x6 | x6 | g2 d e^ga | e d2 edc | %33
 d3 c3 | B x x x2 x | x6 | x6 | g2 d e^ga | e d2 c2 B | BA_B =Bc^c | d3 =c3 | x6 | x6 | x6 | x6 :| %45
 x6 | x6 | x6 | x6 | x6 | x6 | x6 | x6 | x6 | x6 | x6 | x6 | x6 | x6 | x6 | x6 | x6 | x6 | x6 | %64
 x6 | x6 | x6 | x6 | x6 | x6 | x6 | x6 | x6 | x6 | x6 | x6 | x6 | x6 | x6 | x6 | x6 | x6 | x6 | %83
 x6 | x6 | x6 | x6 | x6 | x6 | x6 | x6 | x6 | x6 | x6 | x6 | x6 | e z B c3 | B3 c3 | B3 A3 | %99
 G2 x x2 x | x6 | x6 | e z B c3 | x6 | x6 | x6 | x6 | B3 =A3 | x6 | x6 | x6 | x6 | x6 | x6 | x6 | %115
 x6 | x6 | x6 | x6 | x6 | x6 | x6 | x6 | x6 | x6 | x6 |][M:3/4] x6 | x6 | x6 | x6 | x6 | x6 | x6 | %133
 x6 | x6 | x6 | x6 | x6 | x6 | x6 | x6 | x6 | x6 | x6 | x4[K:bass] x2 | x6 :|[K:treble] x6 | x6 | %148
 x6 | x6 | x6 | x6 | x6 | x6 | x6 | x6 | x6 | x6 | x6 | x6 | x6 | x6 | x6 | x6 | x6 | x6 | x6 | %167
 x6 | x6 | x6 | x6 | x6 | x6 | x2[K:bass] x4 | x6 |][M:2/4][K:treble] x | x4 | x4 | x4 | x4 | x4 | %181
 x4 | x4 | x3 :: x | x4 | x4 | x4 | x4 | x4 | x4 | x4 | x4 | x4 | x3 ::[K:E] x | x4 | x4 | x4 | %199
 x4 | x4 | x4 | x4 | x3 :: x | x4 | x4 | x4 | x4 | x4 | x4 | x4 | x4 | x4 | x4 | x4 | x4 | x4 | %218
 x3 ::[K:G] x | x4 | x4 | x4 | x4 | x4 | x4 | x4 | x4 | x4 | x4 | x4 | x4 | x4 | x4 | x4 | x4 | %236
 x4 | x4 | x4 | x4 | x4 | x4 | x4 | x4 | x4 | x4 | x4 | x4 | x4 | x4 | x4 | x4 | x4 | x4 | x4 | %255
 x3 ::[K:E] x | x4 | x4 | x4 | x4 | x4 | x4 | x4 | x3 :: x | x4 | x4 | x4 | x4 | x4 | x4 | x4 | %273
 x4 | x4 | x4 | x4 | x4 | x4 | x4 | x4 | x3 :|[K:G] x | x4 | x4 | x4 | x4 | x4 | x4 | x4 | x4 | %291
 x4 | x4 | x4 | x4 | x4 | x4 | x4 | x4 | x4 | x4 | x4 | x4 | x4 | x4 | x4 | x4 | x4 | x4 | x4 | %310
 x4 | x4 | x4 | x4 | x4 | x4 | x4 | x4 | x3 |] %319
V:4
 x6 | x6 | x6 | x6 | x6 | x6 | x6 | x6 | x6 | x6 | x6 | x6 | x6 | x6 | x6 |[K:treble] G,3- G,3 | %16
 A,3- A,3 | G,3- G,3 | x6 | x6 | x6 | x6 | x6 | x6 | x6 | x6 | x6 | x3[K:bass] x3 | x6 | x6 | %30
 x3[K:treble] x3 | x6 | x6 | D6 | G x x x2 x |[K:bass] x6 | x3[K:treble] x3 | x6 | x6 | x6 | D6 | %41
 x6 | x6 | x6 | x6 :|[K:bass] x6 | x6 | x6 | x6 | x6 | x6 | x6 | C,3- C,3 | C,3- C,3 | E,3- E,3 | %55
 =F,3- F,3 | E,3- E,3 | ^F,3- F,3 | G,3- G,3 | F,3- F,3 |[K:treble] B,3- B,3 | ^C3- C3 | D3- D3 | %63
 x6 | x6 | x6 | x6 | x6 | x6 | x6 | x3[K:bass] x3 | x6 | x6 | x6 | x6 | x6 | x6 | x6 | x6 | x6 | %80
 E,3- E,3 | F,3- F,3 | G,3- G,3 | x6 | x6 | x6 | x6 | x6 | x6 |[K:treble] x6 | x6 | x6 | %92
 x3[K:bass] x3 | x6 | x6 | x3[K:treble] x3 | x6 | x6 | B,6 | E2 x x2 x |[K:bass] x6 | %101
 x3[K:treble] x3 | x6 | x6 | x6 | x6 | x6 | B,6 |[K:bass] x6 | x6 |[K:treble] x6 | x6 | x6 | x6 | %114
 x6 | x6 | x6 |[K:bass] x6 | x6 | x6 | x6 | x6 | x6 | x6 | x6 | x6 |][M:3/4] x6 | x6 | x6 | x6 | %130
[K:treble] x6 | x2[K:bass] x4 | D,6 | x4[K:treble] x2 |[K:bass] x4[K:treble] x2 |[K:bass] x6 | x6 | %137
[K:treble] x6 | x6 | x4[K:bass] x2 | x6 | x6 | x6 | x6 | x6 | x6 :| x6 | x6 |[K:treble] x6 | x6 | %150
[K:bass] x2[K:treble] x4 | x6 |[K:bass] x2[K:treble] x4 |[K:bass] x21/4[K:treble] x3/4 | x6 | %155
[K:bass] x6 | x6 | x6 | x6 | x6 | x6 |[K:treble] x6 | x6 |[K:bass] x6 | x6 | x6 | x6 | x6 | x6 | %169
 x4[K:treble] x2 | x2[K:bass] x4 | x6 | x6 | x6 | x6 |][M:2/4] x | x4 | x4 | x4 | x4 | x4 | x4 | %182
 x4 | x3 :: x |[K:treble] x4 | x4 | x4 | x2[K:bass] x2 | x4 | x4 | x4 | x4 | x4 | x3 ::[K:E] x | %196
[K:treble] x4 | x2[K:bass] x2 | x4 | x4 |[K:treble] x4 | x4 | x3[K:bass] x | x3 :: x | x4 | %206
 x2[K:treble] x2 | x2[K:bass] x2 | x2[K:treble] x2 | x2[K:bass] x2 | x4 | x4 | x4 | x4 | x4 | x4 | %216
 x2[K:treble] x2 | x4 | x2[K:bass] x ::[K:G] x | x4 | x4 | x4 | x4 | x4 | x4 | x4 | x4 | %228
[K:treble] x4 | x4 | x4 | x2[K:bass] x2 | x4 | x4 | x4 | x4 | x4 | x4 |[K:treble] x4 | x4 | %240
[K:bass] x4 | x4 | x4 | x4 | x4 | x4 | x4 | x4 | x4 | x4 | x4 | x4 | x4 | x4 | x4 | x3 ::[K:E] x | %257
[K:treble] x4 | x4 | x4 | x4 | x4 | x4 | x4 |[K:bass] x3 :: x |[K:treble] x4 | x4 | x4 | x4 | x4 | %271
 x4 |[K:bass] x4 | x4 |[K:treble] x4 | x4 | x4 | x4 | x4 | x4 | x4 | x2[K:bass] x :|[K:G] x | x4 | %284
 x4 | x4 | x4 | x4 | x4 | x4 | x4 | x4 | x4 | x4 | x4 | x4 | x4 | x4 | x4 |[K:treble] x4 | x4 | %301
 x4 | x2[K:bass] x2 | x4 | x4 | x4 | x4 | x4 | x4 |[K:treble] x4 | x4 | x4 |[K:bass] x4 | x4 | x4 | %315
 x4 | x4 | x4 | x3 |] %319
V:5
 x6 | x6 | x6 | x6 | x6 | x6 | x6 | x6 | x6 | x6 | x6 | x6 | x6 | x6 | x6 |[K:treble] x2 D- x3 | %16
 x2 D- x3 | x2 D- x3 | x6 | x6 | x6 | x6 | x6 | x6 | x6 | x6 | x6 | x3[K:bass] x3 | x6 | x6 | %30
 x3[K:treble] x3 | x6 | x6 | x6 | x6 |[K:bass] x6 | x3[K:treble] x3 | x6 | x6 | x6 | x6 | x6 | x6 | %43
 x6 | x6 :|[K:bass] x6 | x6 | x6 | x6 | x6 | x6 | x6 | x2 G,- x3 | x2 G,- x3 | x2 _B,- x3 | %55
 x2 ^C x3 | x2 _B,- x3 | x2 =C- x3 | x2 ^D x3 | x2 ^C- x3 |[K:treble] x2 F- x3 | x2 G- x3 | %62
 x2 ^A x3 | x6 | x6 | x6 | x6 | x6 | x6 | x6 | x3[K:bass] x3 | x6 | x6 | x6 | x6 | x6 | x6 | x6 | %78
 x6 | x6 | x2 B,- x3 | x2 B,- x3 | x2 ^D x3 | x6 | x6 | x6 | x6 | x6 | x6 |[K:treble] x6 | x6 | %91
 x6 | x3[K:bass] x3 | x6 | x6 | x3[K:treble] x3 | x6 | x6 | x6 | x6 |[K:bass] x6 | %101
 x3[K:treble] x3 | x6 | x6 | x6 | x6 | x6 | x6 |[K:bass] x6 | x6 |[K:treble] x6 | x6 | x6 | x6 | %114
 x6 | x6 | x6 |[K:bass] x6 | x6 | x6 | x6 | x6 | x6 | x6 | x6 | x6 |][M:3/4] x6 | x6 | x6 | x6 | %130
[K:treble] x6 | x2[K:bass] x4 | x6 | x4[K:treble] x2 |[K:bass] x4[K:treble] x2 |[K:bass] x6 | x6 | %137
[K:treble] x6 | x6 | x4[K:bass] x2 | x6 | x6 | x6 | x6 | x6 | x6 :| x6 | x6 |[K:treble] x6 | x6 | %150
[K:bass] x2[K:treble] x4 | x6 |[K:bass] x2[K:treble] x4 |[K:bass] x21/4[K:treble] x3/4 | x6 | %155
[K:bass] x6 | x6 | x6 | x6 | x6 | x6 |[K:treble] x6 | x6 |[K:bass] x6 | x6 | x6 | x6 | x6 | x6 | %169
 x4[K:treble] x2 | x2[K:bass] x4 | x6 | x6 | x6 | x6 |][M:2/4] x | x4 | x4 | x4 | x4 | x4 | x4 | %182
 x4 | x3 :: x |[K:treble] x4 | x4 | x4 | x2[K:bass] x2 | x4 | x4 | x4 | x4 | x4 | x3 ::[K:E] x | %196
[K:treble] x4 | x2[K:bass] x2 | x4 | x4 |[K:treble] x4 | x4 | x3[K:bass] x | x3 :: x | x4 | %206
 x2[K:treble] x2 | x2[K:bass] x2 | x2[K:treble] x2 | x2[K:bass] x2 | x4 | x4 | x4 | x4 | x4 | x4 | %216
 x2[K:treble] x2 | x4 | x2[K:bass] x ::[K:G] x | x4 | x4 | x4 | x4 | x4 | x4 | x4 | x4 | %228
[K:treble] x4 | x4 | x4 | x2[K:bass] x2 | x4 | x4 | x4 | x4 | x4 | x4 |[K:treble] x4 | x4 | %240
[K:bass] x4 | x4 | x4 | x4 | x4 | x4 | x4 | x4 | x4 | x4 | x4 | x4 | x4 | x4 | x4 | x3 ::[K:E] x | %257
[K:treble] x4 | x4 | x4 | x4 | x4 | x4 | x4 |[K:bass] x3 :: x |[K:treble] x4 | x4 | x4 | x4 | x4 | %271
 x4 |[K:bass] x4 | x4 |[K:treble] x4 | x4 | x4 | x4 | x4 | x4 | x4 | x2[K:bass] x :|[K:G] x | x4 | %284
 x4 | x4 | x4 | x4 | x4 | x4 | x4 | x4 | x4 | x4 | x4 | x4 | x4 | x4 | x4 |[K:treble] x4 | x4 | %301
 x4 | x2[K:bass] x2 | x4 | x4 | x4 | x4 | x4 | x4 |[K:treble] x4 | x4 | x4 |[K:bass] x4 | x4 | x4 | %315
 x4 | x4 | x4 | x3 |] %319

